X:104
T:Lay Me Down
M:6/8
L:1/8
K:EDor
A|\
B3  B2B|B3  B2B   |A2B A2F|D3  z2z|
D3  A2B|A6        |E3  G2A|B3- B2E|
E2F G2A|B3  e2c   |d2c B2A|c3  F2F|
FFF E2F|G2A B2B/B/|BBB A2F|E3- E3 ||
BBB Bcd|AGF E3    |BBB Bcd|cAA A3 |
Bcd cBA|Bcd cBA   |BBB e3 |BBB BAB|GEE E3||
